X:5
T:Nancy
C:Tom Clough
S:Eric Turner
R:march
M:4/4
L:1/8
K:D
dc |: d2D2F2A2 | d2 fe d3A | d2 ef gfed | c2 e2 A2 Bc |
d2D2F2A2 | d2 fe d2A2 | B2g2 fedc |1 d6 dc :|2 d6 fg |:
a3b a2f2 | g3a g2e2 | f2f2 gfed | c2e2A2Bc | d2D2F2A2 |
d2 fe d2A2 | B2g2 fedc |1 d6 fg :|2 d6 A2 |:
dcBA GFED | FDFA d2A2 | dcde gfed | cdec A2 AA |
dcBA GFED | FDFA d2A2 | B2g2 fedc | d6 A2 ::
aAAa AAaA | gccg ccgc | dcde gfed | cdec A2 Bc |
dcBA GFED | FDFA d2A2 | B2g2 fedc |1 d6A2 :|2 d8|]
